icons/Color/scalable/document-revert.svg

<svg height="16" viewBox="0 0 16 16" width="16" xmlns="http://www.w3.org/2000/svg"><g transform="matrix(-1 0 0 1 16 -1036.3622)"><path d="m1.1015625 0v6.9609375s.4886246-.0209375 6.8984375.0390625l-2.484375-2.5214844c.9276401-.5897888 2.0747691-.8420295 3.2402344-.6367187 2.0911706.3684565 3.6453276 2.0898743 3.7539066 4.1601562.108583 2.0703569-1.260516 3.9052719-3.3046879 4.4355469-2.0441703.53035-4.1906047-.389906-5.1894531-2.228516l-1.9746094.998047c1.4838814 2.731345 4.7197177 4.123738 7.7636719 3.333985 3.0439545-.789828 5.1006515-3.55316 4.9394535-6.6269535-.161197-3.0735689-2.498994-5.6641782-5.6132816-6.2128906-.778573-.1373842-1.5537155-.1362953-2.2988282-.015625-1.0522429.1704127-2.0285187.6005796-2.8730468 1.2128906z" fill="#fcaf3e" stroke="#ce5c00" stroke-width=".5" transform="matrix(-1.00000003456 0 0 .9999999695 15.99956205409 1037.35139479564)"/><path d="m0 1036.3622h16v16h-16z" fill="none"/></g></svg>

<?xml version="1.0" encoding="UTF-8" standalone="no"?>
<svg
   xmlns:dc="http://purl.org/dc/elements/1.1/"
   xmlns:cc="http://creativecommons.org/ns#"
   xmlns:rdf="http://www.w3.org/1999/02/22-rdf-syntax-ns#"
   xmlns:svg="http://www.w3.org/2000/svg"
   xmlns="http://www.w3.org/2000/svg"
   xmlns:sodipodi="http://sodipodi.sourceforge.net/DTD/sodipodi-0.dtd"
   xmlns:inkscape="http://www.inkscape.org/namespaces/inkscape"
   width="16"
   height="16"
   viewBox="0 0 16 16"
   id="svg30571"
   version="1.1"
   inkscape:version="0.92pre1 unknown"
   sodipodi:docname="gimp-revert.svg">
  <defs
     id="defs30573" />
  <sodipodi:namedview
     id="base"
     pagecolor="#ffffff"
     bordercolor="#666666"
     borderopacity="1"
     inkscape:pageopacity="0"
     inkscape:pageshadow="2"
     inkscape:zoom="21.232704"
     inkscape:cx="-1.3324093"
     inkscape:cy="8.76356"
     inkscape:document-units="px"
     inkscape:current-layer="layer1"
     showgrid="true"
     units="px"
     inkscape:snap-page="true"
     inkscape:snap-bbox="true"
     inkscape:bbox-paths="true"
     inkscape:bbox-nodes="true"
     inkscape:snap-bbox-edge-midpoints="true"
     inkscape:snap-bbox-midpoints="true"
     inkscape:object-paths="true"
     inkscape:snap-intersection-paths="true"
     inkscape:object-nodes="true"
     inkscape:snap-smooth-nodes="true"
     inkscape:snap-midpoints="true"
     inkscape:snap-object-midpoints="true"
     inkscape:snap-center="true"
     inkscape:snap-text-baseline="true"
     showborder="false"
     inkscape:window-width="1920"
     inkscape:window-height="1016"
     inkscape:window-x="0"
     inkscape:window-y="27"
     inkscape:window-maximized="1"
     showguides="false"
     inkscape:snap-global="false">
    <inkscape:grid
       type="xygrid"
       id="grid4240" />
  </sodipodi:namedview>
  <metadata
     id="metadata30576">
    <rdf:RDF>
      <cc:Work
         rdf:about="">
        <dc:format>
          image/svg+xml
        </dc:format>
        <dc:type
           rdf:resource="http://purl.org/dc/dcmitype/StillImage" />
        <dc:creator>
          <cc:Agent>
            <dc:title>Klaus Staedtler       </dc:title>
          </cc:Agent>
        </dc:creator>
        <dc:title />
      </cc:Work>
    </rdf:RDF>
  </metadata>
  <g
     inkscape:label="Layer 1"
     inkscape:groupmode="layer"
     id="layer1"
     transform="translate(0,-1036.3622)">
    <g
       id="g4237"
       transform="matrix(-1,0,0,1,16,0)">
      <g
         style="fill:#4e9a06"
         transform="matrix(1.0376102,0,0,1.0091341,0.21299748,-8.8594611)"
         id="g3946">
        <g
           style="fill:#4e9a06"
           id="refresh"
           transform="matrix(0.74272062,0,0,0.74272062,31.29055,291.82008)">
          <path
             style="color:#000000;font-style:normal;font-variant:normal;font-weight:normal;font-stretch:normal;font-size:medium;line-height:normal;font-family:sans-serif;text-indent:0;text-align:start;text-decoration:none;text-decoration-line:none;text-decoration-style:solid;text-decoration-color:#000000;letter-spacing:normal;word-spacing:normal;text-transform:none;writing-mode:lr-tb;direction:ltr;baseline-shift:baseline;text-anchor:start;white-space:normal;clip-rule:nonzero;display:inline;overflow:visible;visibility:visible;opacity:1;isolation:auto;mix-blend-mode:normal;color-interpolation:sRGB;color-interpolation-filters:linearRGB;solid-color:#000000;solid-opacity:1;fill:#fcaf3e;fill-opacity:1;fill-rule:nonzero;stroke:#ce5c00;stroke-width:0.5;stroke-linecap:butt;stroke-linejoin:miter;stroke-miterlimit:4;stroke-dasharray:none;stroke-dashoffset:0;stroke-opacity:1;color-rendering:auto;image-rendering:auto;shape-rendering:auto;text-rendering:auto;enable-background:accumulate"
             d="M 1.1015625,0 V 6.9609375 C 1.1015625,6.9609375 1.5901871,6.94 8,7 L 5.515625,4.4785156 C 6.4432651,3.8887268 7.5903941,3.6364861 8.7558594,3.8417969 10.84703,4.2102534 12.401187,5.9316712 12.509766,8.0019531 12.618349,10.07231 11.24925,11.907225 9.2050781,12.4375 7.1609078,12.96785 5.0144734,12.047594 4.015625,10.208984 L 2.0410156,11.207031 C 3.524897,13.938376 6.7607333,15.330769 9.8046875,14.541016 12.848642,13.751188 14.905339,10.987856 14.744141,7.9140625 14.582944,4.8404936 12.245147,2.2498843 9.1308594,1.7011719 8.3522864,1.5637877 7.5771439,1.5648766 6.8320312,1.6855469 5.7797883,1.8559596 4.8035125,2.2861265 3.9589844,2.8984375 Z"
             transform="matrix(-1.2975984,0,0,1.3342144,-21.645016,1002.9627)"
             id="path4874"
             inkscape:connector-curvature="0"
             sodipodi:nodetypes="cccccsccccccccc" />
        </g>
      </g>
      <rect
         y="1036.3622"
         x="0"
         height="16"
         width="16"
         id="rect3999-8"
         style="color:#000000;clip-rule:nonzero;display:inline;overflow:visible;visibility:visible;opacity:1;isolation:auto;mix-blend-mode:normal;color-interpolation:sRGB;color-interpolation-filters:linearRGB;solid-color:#000000;solid-opacity:1;fill:none;fill-opacity:1;fill-rule:nonzero;stroke:none;stroke-width:0.10246458;stroke-linecap:round;stroke-linejoin:round;stroke-miterlimit:4;stroke-dasharray:none;stroke-dashoffset:0;stroke-opacity:1;color-rendering:auto;image-rendering:auto;shape-rendering:auto;text-rendering:auto;enable-background:accumulate" />
    </g>
  </g>
</svg>
